src/icons/server.svg

<?xml version="1.0" encoding="UTF-8"?>
<svg xmlns="http://www.w3.org/2000/svg" xmlns:xlink="http://www.w3.org/1999/xlink" width="32" height="32" viewBox="0 0 32 32" version="1.1">
<g id="surface1">
<path style=" stroke:none;fill-rule:nonzero;fill:rgb(0%,0%,0%);fill-opacity:1;" d="M 8.960938 0 C 8.394531 0 7.980469 0.21875 7.679688 0.460938 C 7.671875 0.464844 7.667969 0.476562 7.660156 0.480469 C 7.570312 0.550781 7.488281 0.628906 7.421875 0.699219 C 7.40625 0.710938 7.390625 0.726562 7.378906 0.738281 C 7.378906 0.746094 7.382812 0.753906 7.378906 0.761719 L 6.238281 2.039062 C 6.488281 1.964844 6.757812 1.921875 7.039062 1.921875 L 24.960938 1.921875 C 25.242188 1.921875 25.511719 1.960938 25.761719 2.039062 L 24.578125 0.699219 C 24.261719 0.273438 23.671875 0 23.101562 0 Z M 7.039062 3.199219 C 6.296875 3.199219 5.761719 3.738281 5.761719 4.480469 L 5.761719 30.71875 C 5.761719 31.460938 6.296875 32 7.039062 32 L 24.960938 32 C 25.703125 32 26.238281 31.460938 26.238281 30.71875 L 26.238281 4.480469 C 26.238281 3.738281 25.703125 3.199219 24.960938 3.199219 Z M 10.238281 6.398438 L 21.761719 6.398438 C 22.144531 6.398438 22.398438 6.65625 22.398438 7.039062 L 22.398438 10.238281 C 22.398438 10.625 22.144531 10.878906 21.761719 10.878906 L 10.238281 10.878906 C 9.855469 10.878906 9.601562 10.625 9.601562 10.238281 L 9.601562 7.039062 C 9.601562 6.65625 9.855469 6.398438 10.238281 6.398438 Z M 10.238281 12.160156 L 21.761719 12.160156 C 22.144531 12.160156 22.398438 12.414062 22.398438 12.800781 L 22.398438 16 C 22.398438 16.386719 22.144531 16.640625 21.761719 16.640625 L 10.238281 16.640625 C 9.855469 16.640625 9.601562 16.386719 9.601562 16 L 9.601562 12.800781 C 9.601562 12.414062 9.855469 12.160156 10.238281 12.160156 Z M 16 20.480469 C 16.703125 20.480469 17.28125 21.054688 17.28125 21.761719 C 17.28125 22.464844 16.703125 23.039062 16 23.039062 C 15.296875 23.039062 14.71875 22.464844 14.71875 21.761719 C 14.71875 21.054688 15.296875 20.480469 16 20.480469 Z M 16 24.960938 C 16.703125 24.960938 17.28125 25.535156 17.28125 26.238281 C 17.28125 26.945312 16.703125 27.519531 16 27.519531 C 15.296875 27.519531 14.71875 26.945312 14.71875 26.238281 C 14.71875 25.535156 15.296875 24.960938 16 24.960938 Z M 16 24.960938 "/>
</g>
</svg>

<svg role="img" viewBox="0 0 32 32" xmlns="http://www.w3.org/2000/svg"><path d="M8.96 0c-.565 0-.98.219-1.28.46-.008.005-.012.017-.02.02a2.2 2.2 0 0 0-.238.22.428.428 0 0 0-.043.038c0 .008.004.016 0 .024l-1.14 1.277c.25-.074.519-.117.8-.117h17.922c.281 0 .55.039.8.117L24.579.7c-.317-.427-.907-.7-1.477-.7ZM7.04 3.2c-.743 0-1.278.538-1.278 1.28v26.24c0 .742.535 1.281 1.277 1.281h17.922c.742 0 1.277-.54 1.277-1.281V4.48c0-.742-.535-1.28-1.277-1.28Zm3.198 3.198h11.524c.383 0 .636.258.636.641v3.2c0 .386-.253.64-.636.64H10.238c-.383 0-.636-.254-.636-.64v-3.2c0-.383.253-.64.636-.64m0 5.762h11.524c.383 0 .636.254.636.64V16c0 .387-.253.64-.636.64H10.238c-.383 0-.636-.253-.636-.64v-3.2c0-.386.253-.64.636-.64M16 20.48c.703 0 1.281.575 1.281 1.282 0 .703-.578 1.277-1.281 1.277a1.284 1.284 0 0 1-1.281-1.277c0-.707.578-1.282 1.281-1.282m0 4.48c.703 0 1.281.575 1.281 1.278 0 .707-.578 1.282-1.281 1.282a1.285 1.285 0 0 1-1.281-1.282c0-.703.578-1.277 1.281-1.277m0 0" style="stroke:none;fill-rule:nonzero;fill:rgb(0%,0%,0%);fill-opacity:1"/></svg>
